X:1
T:French Suite II Air
T:BWV 813
T:J. S. Bach
%%score { 1 | 2 }
L:1/8
M:2/2
K:Eb
V:1 treble nm="Harp"
V:2 bass 
V:1
 c/=B/c/d/ e/f/g gccc'/g/ | a/4g/4ag/ f/e/d/c/ =B/=A/B/c/ d/e/f/d/ | ecgB A/G/A/f/ e/d/c/B/ | %3
 a/f/g/e/ g/f/e/d/ e4 | c/=B/c/d/ e/f/g gccc'/g/ | a/4g/4ag/ f/e/d/c/ =B/=A/B/c/ d/e/f/d/ | %6
 ecgB A/G/A/f/ e/d/c/B/ | a/f/g/e/ g/f/e/d/ e4 | g/a/g/f/ e/d/c/B/ =A/B/c/A/ Ff | %9
 fe/d/ c/d/e/c/ e/d/c/B/ b2- | b=a/b/ c'/b/a/g/ ^f/g/a/f/ d/f/a/c'/ | b>=a a>g g4 | %12
 =e/d/e/f/ g/a/b/g/ ac- c/d/_e/c/ | d/c/d/e/ f/g/a/f/ g=B- B/c/d/B/ | %14
 c/g/f/e/ f/d/e/c/ =B/f/e/d/ e/c/d/_B/ | A/e/d/c/ d/=B/c/A/ F/c/B/=A/ B/G/_A/F/ | %16
 E/D/E/G/ cE D/E/F/d/ c/=B/=A/G/ | c/=B/c/d/ e/f/g/a/ g/f/e/d/ c/B/=A/G/ | %18
 B/G/=A- A/c/d/e/ f/d/e- e/e/f/g/ | a/f/g/c'/ ed/c/ c4 | g/a/g/f/ e/d/c/B/ =A/B/c/A/ Ff | %21
 fe/d/ c/d/e/c/ e/d/c/B/ b2- | b=a/b/ c'/b/a/g/ ^f/g/a/f/ d/f/a/c'/ | b>=a a>g g4 | %24
 =e/d/e/f/ g/a/b/g/ ac- c/d/_e/c/ | d/c/d/e/ f/g/a/f/ g=B- B/c/d/B/ | %26
 c/g/f/e/ f/d/e/c/ =B/f/e/d/ e/c/d/_B/ | A/e/d/c/ d/=B/c/A/ F/c/B/=A/ B/G/_A/F/ | %28
 E/D/E/G/ cE D/E/F/d/ c/=B/=A/G/ | c/=B/c/d/ e/f/g/a/ g/f/e/d/ c/B/=A/G/ | %30
 B/G/=A- A/c/d/e/ f/d/e- e/e/f/g/ | a/f/g/c'/ ed/c/ !fermata!c4 |] %32
V:2
 CC,CB, A,/B,/C/B,/ A,/G,/F,/E,/ | F,G,A,F, G,=A,=B,G, | C,/=B,,/C,/D,/ E,/F,/G,/E,/ F,A,B,D, | %3
 ^D,A,B,B,, E,/=D,/E,/F,/ G,/=A,/=B,/G,/ | CC,CB, A,/B,/C/B,/ A,/G,/F,/E,/ | F,G,A,F, G,=A,=B,G, | %6
 C,/=B,,/C,/D,/ E,/F,/G,/E,/ F,A,B,D, | ^D,A,B,B,, D,B,, E,,2 | E,F,G,E, F,/G,/=A,/B,/ C/D/E/C/ | %9
 DEFF, B,>=A, G,/F,/E,/D,/ | C,D,E,C, D,=E,^F,D, | G,C,D,D,, G,,G,/=A,/ =B,/C/D/B,/ | %12
 CC,C,C F,/=E,/F,/G,/ A,/B,/C/^G,/ | B,B,,B,,B, E,/D,/E,/F,/ G,/A,/B,/G,/ | A,G,A,F, G,F,G,E, | %15
 F,E,F,D, G,F,E,D, | C,/=B,,/C,/D,/ E,/F,/G, G,G,, G,,C/G,/ | %17
 A,>G, F,/E,/D,/C,/ =B,,/=A,,/B,,/C,/ D,/E,/F,/D,/ | %18
 =E,/G,/F,/_E,/ D,/C,/=B,,/=A,,/ B,,/D,/C,/_B,,/ _A,,/G,,/F,,/E,,/ | F,,/D,,/E,,/C,,/ G,,G,, C,,4 | %20
 E,F,G,E, F,/G,/=A,/B,/ C/D/E/C/ | DEFF, B,>=A, G,/F,/E,/D,/ | C,D,E,C, D,=E,^F,D, | %23
 G,C,D,D,, G,,G,/=A,/ =B,/C/D/B,/ | CC,C,C F,/=E,/F,/G,/ A,/B,/C/^G,/ | %25
 B,B,,B,,B, E,/D,/E,/F,/ G,/A,/B,/G,/ | A,G,A,F, G,F,G,E, | F,E,F,D, G,F,E,D, | %28
 C,/=B,,/C,/D,/ E,/F,/G, G,G,, G,,C/G,/ | A,>G, F,/E,/D,/C,/ =B,,/=A,,/B,,/C,/ D,/E,/F,/D,/ | %30
 =E,/G,/F,/_E,/ D,/C,/=B,,/=A,,/ B,,/D,/C,/_B,,/ _A,,/G,,/F,,/E,,/ | %31
 F,,/D,,/E,,/C,,/ G,,G,, !fermata!C,,4 |] %32

